X: 3
T: Kelly The Boy From Killane
Z: ceolachan
S: https://thesession.org/tunes/3831#setting24359
R: barndance
M: 4/4
L: 1/8
K: Amaj
|: A>c |e2 c>e a2 g>f | e2 c>A F2 A>B | c2 B>c ed BG | A2 (3BAG A2 :|
e>e |f2 (3def a2 g>f | e2 af e2 (3cde | f2 (3d>ef (3a>ba g>f | e2 (3efe e2 A>c |
e2 e>e a2 a>f | e2 cA F2 A>B | c2 B>c ed BG | A4 A2 |]
